!!!COM: Palestrina, Giovanni Perluigi da
!!!OPR: O Regem coeli
!!!OTL: Agnus II
**kern	**kern	**kern	**kern	**kern
*Ibass	*Itenor	*Icalto	*Icalto	*Icant
!Bassus	!Tenor	!Altus 2	!Altus 1	!Cantus
*clefF4	*clefGv2	*clefG2	*clefG2	*clefG2
*k[b-]	*k[b-]	*k[b-]	*k[b-]	*k[b-]
*G:dor	*G:dor	*G:dor	*G:dor	*G:dor
*M4/2	*M4/2	*M4/2	*M4/2	*M4/2
=1	=1	=1	=1	=1
0r	0r	0r	1.d	1r
.	.	.	.	[1a
.	.	.	2d	.
=2	=2	=2	=2	=2
0r	1r	0r	1.f	2a]
.	.	.	.	2a
.	[1A	.	.	[1cc
.	.	.	4e	.
.	.	.	4d	.
=3	=3	=3	=3	=3
0r	2A]	1r	2.e	2cc]
.	2A	.	.	4b-
.	.	.	4f	4a
.	2G	[1d	4g	2b-
.	.	.	4d	.
.	2F	.	[2f	[2a
=4	=4	=4	=4	=4
1r	1B-	2d]	4f]	2a]
.	.	.	4e	.
.	.	2d	1d	2g
[1D	1A	[1f	.	[1a
.	.	.	4c	.
.	.	.	4B-	.
=5	=5	=5	=5	=5
2D]	1F	2f]	2.A	1a]
2D	.	4e	.	.
.	.	4d	4B-	.
2C	2G	2e	2c	1r
2BB-	[2B-	[2d	2d	.
=6	=6	=6	=6	=6
1E-	2B-]	2d]	2G	1r
.	4A	2c	1g	.
.	4G	.	.	.
[1D	1A	[1d	.	2r
.	.	.	4f	[2dd
.	.	.	4e	.
=7	=7	=7	=7	=7
0D]	2r	1d]	2.f	2dd]
.	1d	.	.	2dd
.	.	.	4g	.
.	.	1r	2a	2.ff
.	2d	.	2f	.
.	.	.	.	8ee
.	.	.	.	8dd
=8	=8	=8	=8	=8
0r	2c	2r	2g	2ee-
.	2B-	1g	1b-	1dd
.	1e-	.	.	.
.	.	2g	4a	2cc
.	.	.	4g	.
=9	=9	=9	=9	=9
2r	1d	1.f	1a	1dd
1d	.	.	.	.
.	1r	.	2r	1a
2d	.	4e	[2a	.
.	.	4d	.	.
=10	=10	=10	=10	=10
2c	1r	2e	2a]	0r
2A	.	2f	2a	.
2.B-	2r	2.d	2g	.
.	[2d	.	2f	.
4A	.	4c	.	.
=11	=11	=11	=11	=11
1G	2d]	1B-	1b-	1r
.	2d	.	.	.
[1F	[1f	1c	2.a	2r
.	.	.	.	2a
.	.	.	4g	.
=12	=12	=12	=12	=12
1F]	2f]	2r	1f	2a
.	4e	2A	.	2a
.	4d	.	.	.
1r	1c	2A	1e	2.cc
.	.	2A	.	.
.	.	.	.	4dd
=13	=13	=13	=13	=13
2r	1A	2c	0a	2ee
2D	.	2.d	.	2.ff
2D	2r	.	.	.
.	.	4e	.	4ee
2D	2A	4f	.	2dd
.	.	4g	.	.
=14	=14	=14	=14	=14
2.F	2A	2a	0r	2.cc
.	2A	1f	.	.
4G	.	.	.	4b-
4A	2.c	.	.	2a
4B-	.	.	.	.
[2c	.	4e	.	4g
.	4d	4d	.	4f
=15	=15	=15	=15	=15
2c]	2e	1c	0r	2g
2A	2.f	.	.	1a
1B-	.	1d	.	.
.	4e	.	.	.
.	[2d	.	.	2g
=16	=16	=16	=16	=16
2.A	2d]	1e	1r	1a
.	2c#	.	.	.
4G	.	.	.	.
2F	2d	1d	2r	1r
[2G	[2B-	.	2d	.
=17	=17	=17	=17	=17
2G]	2B-]	2r	2d	1r
4F	4A	2d	2d	.
4E	4G	.	.	.
1D	1A	2d	2.f	2r
.	.	2d	.	2a
.	.	.	4g	.
=18	=18	=18	=18	=18
1D	0r	2.f	2a	2a
.	.	.	1f	2a
.	.	4g	.	.
2r	.	2a	.	2.cc
2A	.	[2cc	4e	.
.	.	.	4d	4dd
=19	=19	=19	=19	=19
2A	0r	4cc]	1c	2ee
.	.	4b-	.	.
2A	.	2.a	.	2.ff
1B-	.	.	1d	.
.	.	4g	.	4ee
.	.	2g	.	[2dd
=20	=20	=20	=20	=20
1A	1r	2.a	1e	2dd]
.	.	.	.	2cc#
.	.	4g	.	.
2D	2r	2f	1d	2.dd
[2B-	2G	2g	.	.
.	.	.	.	4cc
=21	=21	=21	=21	=21
4B-]	2G	1d	2r	0b-
4A	.	.	.	.
4G	2G	.	2d	.
4F	.	.	.	.
1G	2.B-	1r	2d	.
.	.	.	2d	.
.	4c	.	.	.
=22	=22	=22	=22	=22
2.D	2d	1r	2.f	1a
.	2.f	.	.	.
4E	.	.	4g	.
2F	.	2r	2a	1r
.	4e	.	.	.
2G	[2d	2G	[2b-	.
=23	=23	=23	=23	=23
1E-	4d]	2G	4b-]	1r
.	4c	.	4a	.
.	2c	2G	1g	.
[1D	2B-	2.d	.	2r
.	4A	.	4f	2a
.	4G	4c	4e	.
=24	=24	=24	=24	=24
1D]	1A	4d	2f	2a
.	.	4e	.	.
.	.	2f	2d	2a
1r	2.A	2e	2c	2.cc
.	.	2a	2f	.
.	4B-	.	.	4dd
=25	=25	=25	=25	=25
0r	2c	2g	2e	2ee
.	2d	4f	2d	2.ff
.	.	4e	.	.
.	1B-	1d	2f	.
.	.	.	.	4ee
.	.	.	2g	[2dd
=26	=26	=26	=26	=26
1r	1A	1e	2.a	2dd]
.	.	.	.	2cc#
.	.	.	4g	.
2r	1d	2r	2a	[1dd
2B-	.	2d	2b-	.
=27	=27	=27	=27	=27
2B-	0r	2d	1g	2dd]
2c	.	2e	.	4cc
.	.	.	.	4b-
2.d	.	2.f	1r	1a
4c	.	4e	.	.
=28	=28	=28	=28	=28
4B-	2r	4d	2r	1g
4A	.	4c	.	.
2.G	2B-	2d	2d	.
.	2B-	1G	2d	1r
4F	.	.	.	.
2E	2c	.	2e	.
=29	=29	=29	=29	=29
1D	1d	1A	1f	1r
1r	[1e-	1r	[1g	2r
.	.	.	.	2b-
=30	=30	=30	=30	=30
1r	1e-]	1r	1g]	2b-
.	.	.	.	2cc
2r	1d	2r	2a	[1dd
2B-	.	2d	4g	.
.	.	.	4f	.
=31	=31	=31	=31	=31
2B-	0r	2d	1g	2dd]
2c	.	2e	.	4cc
.	.	.	.	4b-
2.d	.	2.f	1r	1a
4c	.	4e	.	.
=32	=32	=32	=32	=32
4B-	2r	4d	2r	1b-
4A	.	4c	.	.
2.G	2B-	2d	2d	.
.	2B-	1G	2d	1g
4F	.	.	.	.
2E	2c	.	2e	.
=33	=33	=33	=33	=33
1D	2.d	1A	2.f	1r
.	4c	.	4e	.
1r	4B-	2r	4d	2r
.	4A	.	4c	.
.	[2B-	2f	2d	2dd
=34	=34	=34	=34	=34
0r	4B-]	2f	1B-	2dd
.	4A	.	.	.
.	2G	2g	.	2ee
.	1F	2.a	2c	2.ff
.	.	.	2A	.
.	.	4g	.	4ee
=35	=35	=35	=35	=35
1BB-	2r	4f	2.B-	4dd
.	.	4e	.	4cc
.	2d	1f	.	1dd
.	.	.	4A	.
2BB-	2d	.	1G	.
2C	2e	2e	.	4cc
.	.	.	.	4b-
=36	=36	=36	=36	=36
0D	2.f	2r	1F	1a
.	.	2.A	.	.
.	4e	.	.	.
.	4d	.	1r	1f
.	4c	8G	.	.
.	.	8A	.	.
.	2d	2B-	.	.
=37	=37	=37	=37	=37
0E-	2.B-	1G	2r	2g
.	.	.	2B-	2.b-
.	4A	.	.	.
.	4G	1r	2B-	.
.	4F	.	.	4a
.	2G	.	2c	[2g
=38	=38	=38	=38	=38
1D	1A	1r	1d	2g]
.	.	.	.	2f#
2r	1G	2r	2.d	2g
2G	.	2B-	.	[2b-
.	.	.	4c	.
=39	=39	=39	=39	=39
2G	0r	2B-	4d	2b-]
.	.	.	4e	.
2A	.	2c	1f	4a
.	.	.	.	4g
2.B-	.	2.d	.	1f
.	.	.	2d	.
4A	.	4c	.	.
=40	=40	=40	=40	=40
4G	2r	4B-	2r	0r
4F	.	4A	.	.
2.G	2B-	2B-	2d	.
.	2B-	1G	2d	.
4F	.	.	.	.
2E	2c	.	2e	.
=41	=41	=41	=41	=41
1D	2.d	1A	2.f	1r
.	4c	.	4e	.
1r	4B-	2r	4d	1dd
.	4A	.	4c	.
.	[2B-	2f	2d	.
=42	=42	=42	=42	=42
0r	4B-]	2f	1B-	2dd
.	4A	.	.	.
.	2G	2g	.	2ee
.	1F	2.a	2c	2.ff
.	.	.	2A	.
.	.	4g	.	4ee
=43	=43	=43	=43	=43
1BB-	2r	4f	2.B-	4dd
.	.	4e	.	4cc
.	2d	1f	.	1dd
.	.	.	4A	.
2BB-	2d	.	1G	.
2C	2e	2e	.	4cc
.	.	.	.	4b-
=44	=44	=44	=44	=44
0D	2.f	2r	1F	1a
.	.	2.A	.	.
.	4e	.	.	.
.	4d	.	1r	1f
.	4c	8G	.	.
.	.	8A	.	.
.	2d	2B-	.	.
=45	=45	=45	=45	=45
0E-	2.B-	1G	2r	2g
.	.	.	2B-	2.b-
.	4A	.	.	.
.	4G	1r	2B-	.
.	4F	.	.	4a
.	2G	.	2c	[2g
=46	=46	=46	=46	=46
1D	1A	1r	0d	2g]
.	.	.	.	2f#
1G	[1G	2r	.	[1g
.	.	2B-	.	.
=47	=47	=47	=47	=47
2E-	0G_	2B-	2.e-	0g_
2C	.	2c	.	.
.	.	.	8d	.
.	.	.	8c	.
1G	.	1d	4B-	.
.	.	.	4c	.
.	.	.	[2d	.
=48	=48	=48	=48	=48
0C	0G_	0e-	4d]	0g_
.	.	.	4c	.
.	.	.	1c	.
.	.	.	4B	.
.	.	.	4A	.
=49	=49	=49	=49	=49
[0G	1G]	[0d	[0B	1g]
.	[1G	.	.	[1g
=50	=50	=50	=50	=50
0G]	0G]	0d]	0B]	0g]
==	==	==	==	==
*-	*-	*-	*-	*-
!!!CDT: 1525/^1526/-1594/2/2
!!!OCY: Italia
!!!AGN: Mass (Parody)
!!!AST: renaissance, vocal
!!!ASW: Motet 1532 (Silva)
!!!PWK: Masses, Book I
!!!RNB: Cadence finals: D
!!!YOR: Le Opere Complete, v. 1, p. 35
!!!YOO: Rome, Italy: Fratelli Scalera
!!!END: 1992//
!!!EED: John Miller
!!!YEC: Copyright 2000, John Miller
!!!YEN: United States of America
!!!YEM: Rights to all derivative electronic formats reserved.
!!!YEM: Refer to licensing agreement for further details.
!!!YEM: This file must be accompanied by the licensing agreement.
!!!YEM: A copy of the licensing agreement may be found at http://www.music-cog.ohio-state.edu/HumdrumDatabases/Palestrina/license.txt
!!!EMD: converted to Humdrum by Bret Aarden
